jsapp/svg-icons/qt-ranking-lock.svg

<svg height="642" viewBox="0 0 642 642" width="642" xmlns="http://www.w3.org/2000/svg"><path d="m289 273v-32c0-8.836556 7.163444-16 16-16h192c8.836556 0 16 7.163444 16 16v32c0 8.836556-7.163444 16-16 16h-192c-8.836556 0-16-7.163444-16-16zm16 144h89.52c4.786271-24.245161 16.669175-46.521256 34.14-64h-123.66c-8.836556 0-16 7.163444-16 16v32c0 8.836556 7.163444 16 16 16zm0-256h256c8.836556 0 16-7.163444 16-16v-32c0-8.836556-7.163444-16-16-16h-256c-8.836556 0-16 7.163444-16 16v32c0 8.836556 7.163444 16 16 16zm47 347.07c-.009278-9.326343 1.946533-18.550002 5.74-27.07h-52.74c-8.836556 0-16 7.163444-16 16v32c0 8.836556 7.163444 16 16 16h47zm-111-91.07h-48v-304c0-8.836556-7.163444-16-16-16h-32c-8.836556 0-16 7.163444-16 16v304h-48c-14.19 0-21.37 17.24-11.29 27.31l80 96c6.247539 6.243446 16.372461 6.243446 22.62 0l80-96c10.02-10.05 2.89-27.31-11.33-27.31zm401 91.07v107.14c0 14.795708-11.994292 26.79-26.79 26.79h-196.42c-14.795708 0-26.79-11.994292-26.79-26.79v-107.14c0-14.795708 11.994292-26.79 26.79-26.79h13.39v-40.17c0-46.844792 37.975208-84.82 84.82-84.82s84.82 37.975208 84.82 84.82v40.18h13.39c14.791804 0 26.784479 11.988197 26.79 26.78zm-97.91 52c0-14.746003-11.953997-26.7-26.7-26.7s-26.7 11.953997-26.7 26.7 11.953997 26.7 26.7 26.7c14.730396 0 26.677932-11.929621 26.7-26.66zm13.09-119c0-22.190801-17.989199-40.18-40.18-40.18s-40.18 17.989199-40.18 40.18v40.18h80.36z"/></svg>

<svg id="Layer_1" data-name="Layer 1" xmlns="http://www.w3.org/2000/svg" viewBox="0 0 642 642"><path d="M289,273V241a16,16,0,0,1,16-16H497a16,16,0,0,1,16,16v32a16,16,0,0,1-16,16H305A16,16,0,0,1,289,273Zm16,144h89.52a124.69,124.69,0,0,1,34.14-64H305a16,16,0,0,0-16,16v32A16,16,0,0,0,305,417Zm0-256H561a16,16,0,0,0,16-16V113a16,16,0,0,0-16-16H305a16,16,0,0,0-16,16v32A16,16,0,0,0,305,161Zm47,347.07A66.39,66.39,0,0,1,357.74,481H305a16,16,0,0,0-16,16v32a16,16,0,0,0,16,16h47ZM241,417H193V113a16,16,0,0,0-16-16H145a16,16,0,0,0-16,16V417H81c-14.19,0-21.37,17.24-11.29,27.31l80,96a16,16,0,0,0,22.62,0l80-96C262.35,434.26,255.22,417,241,417Zm401,91.07V615.21A26.79,26.79,0,0,1,615.21,642H418.79A26.79,26.79,0,0,1,392,615.21V508.07a26.79,26.79,0,0,1,26.79-26.79h13.39V441.11a84.82,84.82,0,0,1,169.64,0v40.18h13.39A26.79,26.79,0,0,1,642,508.07Zm-97.91,52a26.7,26.7,0,1,0-26.7,26.7A26.7,26.7,0,0,0,544.09,560.11Zm13.09-119a40.18,40.18,0,1,0-80.36,0v40.18h80.36Z"/></svg>
